X:1711
T:Twenty First of September
%
P:The Cross of Inverness
C:Capt. S. Fraser of Knockie
R:Reel (8x40) ABABB
B:RSCDS 17-11
Z:Anselm Lingnau <anselm@strathspey.org>
M:2/2
L:1/8
K:G
E|"G"DB,B,D "C"ECCB|"Am"cBAG "D"FDDE|"G"DB,B,D "C"ECCG|"D7"FDAF "G"G2 GE|
  "G"DB,B,D "C"ECCB|"Am"cBAG "D"FEDC|"G"B,DGD "Am"CEAE|"D"FDAF "G"G2 G||
d|"G"g2 g2 "C"ecce|"A7"^cgca "D"fdd=c|"G"BgBg "C"ecc^g|"A7"a^ga^c "D"d2 d=c|
  "G"B/c/dgd "C"ecce|"A7"c/d/eae "D"fdd g/a/|\
  "G"bdBg "C"ecAc|"D7"B/c/d DF "G"G2 G|]
%
P: Morayshire Farmers
C: Marshall
R: reel
B: RSCDS 17-11(II)
Z: 1997 by John Chambers <jc:trillian.mit.edu>
M: C|
L: 1/8
K: G
D \
| "G"G2BG "D7"DAFD | "G"G2Bd gdBG | "Am"ce"G"dB "Am"EA"D7"FD | "Am"EC"D7"FD "G"G2G :|
|| f \
| "G"g2dg Bgdg | g2dg "Am"aAce | "G"g2dg Bgdg | "D7"EAFD "G"G2Gf |
| "G"g2dg Bgdg | g2fg "Am"aAce | "G"gb"D7"af "G"gdBG | "D7"EAFD "G"G2G |]
